X: 1145
T: İn Nilte Yâ Riha`s
C: Zekâî Dede
O: Turkey
F: http://compmusic.upf.edu/node/140
N: saba--sugul--duyek--in_nilte--zekai_dede
N: makam= saba
N: form= sugul
N: usul= duyek = 8/4
M: 8/4
L: 1/16
K: C _2/4B _3/4d  
Q: 1/4=156
%%MIDI tuningsystem comma53
z2 c2 c2 d2 c2 d2 c2 B2  | A2 {B}AG A2 B2 c2 d2 c2 BA  | \
w:  İn  nil te  yâ  *  rî  |  has  *  *  *  *  Sa bâ   | 
B2 B2 B2 d2 c2 {d}cB A4  | 
w:  *  yev men  i lâ  *  *  *  ar  | 
BA Bd c2 BA A4 c4  | z2 c2 c2 d2 c2 d2 c2 B2  | \
w:  zil  *  *  *  *  ha *  rem  (ah)    |  İn  nil te  yâ  *  rî  | 
A2 {B}AG A2 B2 c2 d2 c2 BA  | 
w:  has  *  *  *  *  Sa bâ   | 
B2 B2 B2 d2 c2 {d}cB A4  | BA Bd c2 BA A4 g4  | \
w:  *  yev men  i lâ  *  *  *  ar  |  zil  *  *  *  *  ha *  rem  (ah)    | 
z2 g2 g2 _7/8a2 g2 f2 e2 d2  | 
w:  Bel liğ  se lâ *  mi   | 
c2 {d}cB A2 B2 c2 d2 c2 BA  | B2 B2 B2 d2 c2 {d}cB A4  | \
w:  rav *  *  *  *  za ten   |  *  fi hen  Ne biy *  *  *  yül   | 
BA Bd c2 BA A4 g4  | 
w:  muh *  *  *  *  te *  rem  (ah)    | 
z2 g2 g2 _7/8a2 g2 f2 e2 d2  | c2 {d}cB A2 B2 c2 d2 c2 BA  | \
w:  Bel liğ  se lâ *  mi   |  rav *  *  *  *  za ten   | 
B2 B2 B2 d2 c2 {d}cB A4  | 
w:  *  fi hen  Ne biy *  *  *  yül   | 
BA Bd c2 BA A3c BA B2  | z2 ^F2 G2 A2 A4 A4  | \
w:  muh *  *  *  *  te *  rem    |  Sal li  a lâ  bed  | 
A2 {B}AG A2 B2 c2 d2 c2 BA  | 
w:  rid  *  *  *  *  dü câ   | 
B2 d2 d2 d2 c2 {d}cB A4  | BA Bd c2 BA A3c BA B2  | \
w:  *  mah bû bi  Rab *  *  *  bi   |  zül  *  *  *  *  ke *  rem    | 
z2 ^F2 G2 A2 A4 A4  | 
w:  Sal li  a lâ  bed  | 
A2 {B}AG A2 B2 c2 d2 c2 BA  | B2 d2 d2 d2 c2 {d}cB A4  | \
w:  rid  *  *  *  *  dü câ   |  *  mah bû bi  Rab *  *  *  bi   | 
BA Bd c2 BA A8  | 
w:  zül  *  *  *  *  ke *  rem    | 
z2 c2 c2 d2 c2 d2 c2 B2  | A2 {B}AG A2 B2 c2 d2 c2 BA  | \
w:  Ol  nû rî  en *  vâ  |  rı  *  *  *  sad *  rü   | 
B2 B2 B2 d2 c2 {d}cB A4  | 
w:  *  mah bû bi  zî *  *  *  şâ  | 
BA Bd c2 BA A4 c4  | z2 c2 c2 d2 c2 d2 c2 B2  | \
w:  nı  *  *  *  *  Sa *  med  (ah)    |  Ol  nû rî  en *  vâ  | 
A2 {B}AG A2 B2 c2 d2 c2 BA  | 
w:  rı  *  *  *  sad *  rü   | 
B2 B2 B2 d2 c2 {d}cB A4  | BA Bd c2 BA A4 g4  | \
w:  *  mah bû bi  zî *  *  *  şâ  |  nı  *  *  *  *  sa *  med  (ah)    | 
z2 g2 g2 _7/8a2 g2 f2 e2 d2  | 
w:  Men  şah sü hû  *  ley  | 
c2 {d}cB A2 B2 c2 d2 c2 BA  | B2 B2 B2 d2 c2 {d}cB A4  | \
w:  sed  *  *  *  *  de a   |  *  men  kef fü hü  *  *  *  bah  | 
BA Bd c2 BA A4 g4  | 
w:  rül  *  *  *  *  ha *  zem    | 
z2 g2 g2 _7/8a2 g2 f2 e2 d2  | c2 {d}cB A2 B2 c2 d2 c2 BA  | \
w:  Men  şah sü hû  *  ley  |  sed  *  *  *  *  de a   | 
B2 B2 B2 d2 c2 {d}cB A4  | 
w:  *  men  kef fü hü  *  *  *  bah  | 
BA Bd c2 BA A3c BA B2  | z2 ^F2 G2 A2 A4 A4  | \
w:  rül  *  *  *  *  ha *  zem    |  Sal li  a lâ  bed  | 
A2 {B}AG A2 B2 c2 d2 c2 BA  | 
w:  rid  *  *  *  *  dü câ   | 
B2 d2 d2 d2 c2 {d}cB A4  | BA Bd c2 BA A3c BA B2  | \
w:  *  mah bû bi  Rab *  *  *  bi   |  zül  *  *  *  *  ke *  rem    | 
z2 ^F2 G2 A2 A4 A4  | 
w:  Sal li  a lâ  bed  | 
A2 {B}AG A2 B2 c2 d2 c2 BA  | B2 d2 d2 d2 c2 {d}cB A4  | \
w:  rid  *  *  *  *  dü câ   |  *  mah bû bi  Rab *  *  *  bi   | 
BA Bd c2 BA A8  | 
w:  zül  *  *  *  *  ke *  rem    | 
|


